X:1
T:O Say, Bonny Lass
M:3/4
L:1/4
K:G
G/2-E/2| D E G| G3/2 c/2 B| A G A| B G E| D E G| Gd/2-c/2B/2-A/2| G3/2 A/2B/2-A/2|\
 G E D| c3/2 d/2 c| B A G| A A A| A B d| g3/2- f/2 e|e/2-d/2c/2-B/2A/2-G/2|\
 G3/2 A/2B/2 A/2| G E||
